build/category/CloneOutline.svg

<svg xmlns="http://www.w3.org/2000/svg" fill="none" viewBox="0 0 24 24" focusable="false"><path d="M0 0H24V24H0z"/><path fill="#74767B" fill-rule="evenodd" d="M6 4C4.34315 4 3 5.34315 3 7L3 14.0022C3 15.659 4.34315 17.0022 6 17.0022L10 17.0022L10 18.7L8.64878 18.7C8.28979 18.7 7.99878 18.991 7.99878 19.35C7.99878 19.7089 8.28979 20 8.64878 20L15.3513 20C15.7102 20 16.0013 19.7089 16.0013 19.35C16.0013 18.991 15.7102 18.7 15.3513 18.7L14 18.7L14 17.0022L18 17.0022C19.6569 17.0022 21 15.659 21 14.0022L21 7C21 5.34315 19.6569 4 18 4L6 4ZM11.3502 5.3L6 5.3C5.06112 5.3 4.3 6.06112 4.3 7L4.3 13.0999L19.7 13.0999L19.7 7C19.7 6.06112 18.9389 5.3 18 5.3L12.6502 5.3L12.6502 9.04452L14.1576 7.46301C14.4052 7.20315 14.8167 7.19328 15.0765 7.44095C15.3364 7.68863 15.3463 8.10007 15.0986 8.35993L12.4744 11.1132C12.4641 11.1241 12.4534 11.1347 12.4424 11.145C12.3264 11.2527 12.171 11.3186 12.0002 11.3186C11.9144 11.3186 11.8324 11.302 11.7575 11.2718L11.7425 11.2656C11.6627 11.2312 11.5886 11.1802 11.5255 11.1127L8.94542 8.35559C8.70013 8.09347 8.71378 7.68214 8.97589 7.43685C9.23801 7.19157 9.64934 7.20522 9.89463 7.46733L11.3502 9.02276L11.3502 5.3ZM6 15.7022C5.19808 15.7022 4.52585 15.1469 4.34678 14.3999L19.6532 14.3999C19.4741 15.1469 18.8019 15.7022 18 15.7022L6 15.7022ZM12.7 18.7L12.7 17.3L11.3 17.3L11.3 18.7L12.7 18.7Z"/></svg>

<svg xmlns="http://www.w3.org/2000/svg" fill="none" viewBox="0 0 24 24" focusable="false"><path fill="#74767B" fill-rule="evenodd" d="M6 4C4.34 4 3 5.34 3 7v7c0 1.65 1.34 3 3 3h4v1.7H8.64c-.36 0-.65.29-.65.65 0 .35.29.64.65.64h6.71c.36 0 .65-.29.65-.64 0-.36-.29-.65-.65-.65H14V17h4c1.65 0 3-1.35 3-3V7c0-1.66-1.35-3-3-3zm5.35 1.29H6c-.94 0-1.7.77-1.7 1.71v6.09h15.4V7c0-.94-.77-1.71-1.7-1.71h-5.35v3.75l1.5-1.58c.25-.26.66-.27.92-.02.26.24.27.66.02.91l-2.62 2.76-.03.03c-.12.11-.27.17-.44.17a.7.7 0 0 1-.25-.04l-.01-.01a.54.54 0 0 1-.22-.15L8.94 8.35a.66.66 0 0 1 .03-.92c.26-.24.67-.23.92.03l1.46 1.56zM6 15.7c-.81 0-1.48-.56-1.66-1.31h15.31c-.18.75-.85 1.31-1.65 1.31zm6.7 3v-1.41h-1.4v1.41z"/></svg>
